X: 783
T: Zuo junxie
L: 1/8
M: 2/4
K: Eb
B c e f [I:setbarnb 1]| 
d c B G | 
B e B G | 
F4 | 
B c e f | 
d c B G | 
B e B G | 
F4 | 
F GB2 | 
e2c B | 
B e B G | 
E4 | 
B,B,2G | 
F GE2 | 
GF2C | 
B,4 |]

@@@ Tune index: 9657
